static/img/kroki/df48b0db0c1e75b5bd13fa3100efb3d5.svg

<?xml version="1.0" encoding="us-ascii" standalone="no"?><svg xmlns="http://www.w3.org/2000/svg" xmlns:xlink="http://www.w3.org/1999/xlink" contentStyleType="text/css" height="645px" preserveAspectRatio="none" style="width:593px;height:645px;" version="1.1" viewBox="0 0 593 645" width="593px" zoomAndPan="magnify"><defs/><g><!--class aws_ec2_security_group--><g id="elem_aws_ec2_security_group"><rect codeLine="23" fill="#3D176E" height="39.7891" id="aws_ec2_security_group" rx="2.5" ry="2.5" style="stroke:#000D19;stroke-width:0.5;" width="245" x="7" y="599.55"/><ellipse cx="22" cy="619.4445" fill="#ADD1B2" rx="11" ry="11" style="stroke:#181818;stroke-width:1.0;"/><path d="M24.9688,625.0852 Q24.3906,625.382 23.75,625.5227 Q23.1094,625.6789 22.4063,625.6789 Q19.9063,625.6789 18.5781,624.0383 Q17.2656,622.382 17.2656,619.257 Q17.2656,616.132 18.5781,614.4758 Q19.9063,612.8195 22.4063,612.8195 Q23.1094,612.8195 23.75,612.9758 Q24.4063,613.132 24.9688,613.4289 L24.9688,616.1477 Q24.3438,615.5695 23.75,615.3039 Q23.1563,615.0227 22.5313,615.0227 Q21.1875,615.0227 20.5,616.1008 Q19.8125,617.1633 19.8125,619.257 Q19.8125,621.3508 20.5,622.4289 Q21.1875,623.4914 22.5313,623.4914 Q23.1563,623.4914 23.75,623.2258 Q24.3438,622.9445 24.9688,622.3664 L24.9688,625.0852 Z " fill="#000000"/><text fill="#D9B8FF" font-family="Helvetica" font-size="17" lengthAdjust="spacing" textLength="203" x="41" y="625.3298">aws_ec2_security_group</text></g><!--class azure_network_security_group--><g id="elem_azure_network_security_group"><rect codeLine="26" fill="#3D176E" height="39.7891" id="azure_network_security_group" rx="2.5" ry="2.5" style="stroke:#000D19;stroke-width:0.5;" width="299" x="287" y="599.55"/><ellipse cx="302" cy="619.4445" fill="#ADD1B2" rx="11" ry="11" style="stroke:#181818;stroke-width:1.0;"/><path d="M304.9688,625.0852 Q304.3906,625.382 303.75,625.5227 Q303.1094,625.6789 302.4063,625.6789 Q299.9063,625.6789 298.5781,624.0383 Q297.2656,622.382 297.2656,619.257 Q297.2656,616.132 298.5781,614.4758 Q299.9063,612.8195 302.4063,612.8195 Q303.1094,612.8195 303.75,612.9758 Q304.4063,613.132 304.9688,613.4289 L304.9688,616.1477 Q304.3438,615.5695 303.75,615.3039 Q303.1563,615.0227 302.5313,615.0227 Q301.1875,615.0227 300.5,616.1008 Q299.8125,617.1633 299.8125,619.257 Q299.8125,621.3508 300.5,622.4289 Q301.1875,623.4914 302.5313,623.4914 Q303.1563,623.4914 303.75,623.2258 Q304.3438,622.9445 304.9688,622.3664 L304.9688,625.0852 Z " fill="#000000"/><text fill="#D9B8FF" font-family="Helvetica" font-size="17" lengthAdjust="spacing" textLength="257" x="321" y="625.3298">azure_network_security_group</text></g><!--class resource--><g id="elem_resource"><rect codeLine="29" fill="#3D176E" height="310.7578" id="resource" rx="2.5" ry="2.5" style="stroke:#000D19;stroke-width:0.5;" width="227" x="169" y="7"/><ellipse cx="237.75" cy="26.8945" fill="#ADD1B2" rx="11" ry="11" style="stroke:#181818;stroke-width:1.0;"/><path d="M240.7188,32.5352 Q240.1406,32.832 239.5,32.9727 Q238.8594,33.1289 238.1563,33.1289 Q235.6563,33.1289 234.3281,31.4883 Q233.0156,29.832 233.0156,26.707 Q233.0156,23.582 234.3281,21.9258 Q235.6563,20.2695 238.1563,20.2695 Q238.8594,20.2695 239.5,20.4258 Q240.1563,20.582 240.7188,20.8789 L240.7188,23.5977 Q240.0938,23.0195 239.5,22.7539 Q238.9063,22.4727 238.2813,22.4727 Q236.9375,22.4727 236.25,23.5508 Q235.5625,24.6133 235.5625,26.707 Q235.5625,28.8008 236.25,29.8789 Q236.9375,30.9414 238.2813,30.9414 Q238.9063,30.9414 239.5,30.6758 Q240.0938,30.3945 240.7188,29.8164 L240.7188,32.5352 Z " fill="#000000"/><text fill="#D9B8FF" font-family="Helvetica" font-size="17" lengthAdjust="spacing" textLength="71" x="263.25" y="32.7798">resource</text><line style="stroke:#000D19;stroke-width:0.5;" x1="170" x2="395" y1="46.7891" y2="46.7891"/><text fill="#D9B8FF" font-family="sans-serif" font-size="14" font-weight="bold" lengthAdjust="spacing" textLength="29" x="180" y="68.7842">age</text><text fill="#D9B8FF" font-family="sans-serif" font-size="14" lengthAdjust="spacing" textLength="66" x="209" y="68.7842">: duration</text><text fill="#D9B8FF" font-family="sans-serif" font-size="14" font-weight="bold" lengthAdjust="spacing" textLength="43" x="180" y="95.0811">atime</text><text fill="#D9B8FF" font-family="sans-serif" font-size="14" lengthAdjust="spacing" textLength="70" x="223" y="95.0811">: datetime</text><text fill="#D9B8FF" font-family="sans-serif" font-size="14" font-weight="bold" lengthAdjust="spacing" textLength="43" x="180" y="121.3779">ctime</text><text fill="#D9B8FF" font-family="sans-serif" font-size="14" lengthAdjust="spacing" textLength="70" x="223" y="121.3779">: datetime</text><text fill="#D9B8FF" font-family="sans-serif" font-size="14" font-weight="bold" lengthAdjust="spacing" textLength="14" x="180" y="147.6748">id</text><text fill="#D9B8FF" font-family="sans-serif" font-size="14" lengthAdjust="spacing" textLength="48" x="194" y="147.6748">: string</text><text fill="#D9B8FF" font-family="sans-serif" font-size="14" font-weight="bold" lengthAdjust="spacing" textLength="33" x="180" y="173.9717">kind</text><text fill="#D9B8FF" font-family="sans-serif" font-size="14" lengthAdjust="spacing" textLength="48" x="213" y="173.9717">: string</text><text fill="#D9B8FF" font-family="sans-serif" font-size="14" font-weight="bold" lengthAdjust="spacing" textLength="90" x="180" y="200.2686">last_access</text><text fill="#D9B8FF" font-family="sans-serif" font-size="14" lengthAdjust="spacing" textLength="66" x="270" y="200.2686">: duration</text><text fill="#D9B8FF" font-family="sans-serif" font-size="14" font-weight="bold" lengthAdjust="spacing" textLength="90" x="180" y="226.5654">last_update</text><text fill="#D9B8FF" font-family="sans-serif" font-size="14" lengthAdjust="spacing" textLength="66" x="270" y="226.5654">: duration</text><text fill="#D9B8FF" font-family="sans-serif" font-size="14" font-weight="bold" lengthAdjust="spacing" textLength="48" x="180" y="252.8623">mtime</text><text fill="#D9B8FF" font-family="sans-serif" font-size="14" lengthAdjust="spacing" textLength="70" x="228" y="252.8623">: datetime</text><text fill="#D9B8FF" font-family="sans-serif" font-size="14" font-weight="bold" lengthAdjust="spacing" textLength="43" x="180" y="279.1592">name</text><text fill="#D9B8FF" font-family="sans-serif" font-size="14" lengthAdjust="spacing" textLength="48" x="223" y="279.1592">: string</text><text fill="#D9B8FF" font-family="sans-serif" font-size="14" font-weight="bold" lengthAdjust="spacing" textLength="34" x="180" y="305.4561">tags</text><text fill="#D9B8FF" font-family="sans-serif" font-size="14" lengthAdjust="spacing" textLength="171" x="214" y="305.4561">: dictionary[string, string]</text></g><!--class security_group--><g id="elem_security_group"><rect codeLine="41" fill="#3D176E" height="39.7891" id="security_group" rx="2.5" ry="2.5" style="stroke:#000D19;stroke-width:0.5;" width="165" x="200" y="438.76"/><ellipse cx="215" cy="458.6545" fill="#ADD1B2" rx="11" ry="11" style="stroke:#181818;stroke-width:1.0;"/><path d="M217.9688,464.2952 Q217.3906,464.592 216.75,464.7327 Q216.1094,464.8889 215.4063,464.8889 Q212.9063,464.8889 211.5781,463.2483 Q210.2656,461.592 210.2656,458.467 Q210.2656,455.342 211.5781,453.6858 Q212.9063,452.0295 215.4063,452.0295 Q216.1094,452.0295 216.75,452.1858 Q217.4063,452.342 217.9688,452.6389 L217.9688,455.3577 Q217.3438,454.7795 216.75,454.5139 Q216.1563,454.2327 215.5313,454.2327 Q214.1875,454.2327 213.5,455.3108 Q212.8125,456.3733 212.8125,458.467 Q212.8125,460.5608 213.5,461.6389 Q214.1875,462.7014 215.5313,462.7014 Q216.1563,462.7014 216.75,462.4358 Q217.3438,462.1545 217.9688,461.5764 L217.9688,464.2952 Z " fill="#000000"/><text fill="#D9B8FF" font-family="Helvetica" font-size="17" lengthAdjust="spacing" textLength="123" x="234" y="464.5398">security_group</text></g><!--reverse link security_group to aws_ec2_security_group--><g id="link_security_group_aws_ec2_security_group"><path codeLine="44" d="M251.5522,491.7736 C222.1522,522.2936 177.47,568.66 148.02,599.22 " fill="none" id="security_group-backto-aws_ec2_security_group" style="stroke:#FFAF37;stroke-width:2.0;"/><polygon fill="none" points="264.04,478.81,247.231,487.611,255.8734,495.9362,264.04,478.81" style="stroke:#FFAF37;stroke-width:2.0;"/></g><!--reverse link security_group to azure_network_security_group--><g id="link_security_group_azure_network_security_group"><path codeLine="45" d="M313.6117,491.7312 C343.2117,522.2512 388.22,568.66 417.86,599.22 " fill="none" id="security_group-backto-azure_network_security_group" style="stroke:#FFAF37;stroke-width:2.0;"/><polygon fill="none" points="301.08,478.81,309.3046,495.9084,317.9187,487.554,301.08,478.81" style="stroke:#FFAF37;stroke-width:2.0;"/></g><!--reverse link resource to security_group--><g id="link_resource_security_group"><path codeLine="46" d="M282.5,335.85 C282.5,384.14 282.5,413.37 282.5,438.68 " fill="none" id="resource-backto-security_group" style="stroke:#FFAF37;stroke-width:2.0;"/><polygon fill="none" points="282.5,317.85,276.5,335.85,288.5,335.85,282.5,317.85" style="stroke:#FFAF37;stroke-width:2.0;"/></g><!--SRC=[XPBDIyD04CNl-IiMl0KB_K1hnOiMH2yYwaqaJ7SdwT9cDynEBFNZVpThR4WtJRqbx_qoxysGfLOeC2zuAtBC5qWkSYjj2Y38nJMHtSpjsf8uILD89zFGlBM6_mKU84TnX-jtP2qX95wMMguCEYV6BUi6v2eZMnfLZsS2uoeB3RUe-HgSksOclIWPMsNKR76HfY4P3ZsPgD7q73kO9ONqXmo7GpMQXSY_KKVtReXd_O5Yr3xQWsNirEn4_597MtgYLRApwCxlxVW8IccJYREMzbHt8eEqfpylGTcDfrDOktQCOoIql2rmtjaAPnSgdHw4x_lWIFhJ2TYu1EKuSIXBqhnDF5k8poZwtX4V9M5Ya3UMLaSuGcTBabXfSGmPnl6bK2K1QskymZglDM3qpvKc3sXQUS5LFwB9gjTgfNsXok84fAn-yo3XroaBFojmyWCv1cgf6SoGrHErz9y1RLzhx_IFUMjMFNI4GBlw6Wm6FTVjOO_SEMgEMxE1-mC0]--></g></svg>

<svg xmlns="http://www.w3.org/2000/svg" width="593" height="645" viewBox="0 0 593 645"><rect width="245" height="39.789" x="7" y="599.55" fill="#3D176E" rx="2.5" ry="2.5" style="stroke:#000d19;stroke-width:.5"/><circle cx="22" cy="619.444" r="11" fill="#ADD1B2" style="stroke:#181818;stroke-width:1"/><path d="M24.969 625.085q-.578.297-1.219.438-.64.156-1.344.156-2.5 0-3.828-1.64-1.312-1.657-1.312-4.782t1.312-4.781q1.328-1.657 3.828-1.657.703 0 1.344.157.656.156 1.219.453v2.719q-.625-.579-1.219-.844-.594-.281-1.219-.281-1.343 0-2.031 1.078-.687 1.062-.687 3.156t.687 3.172q.688 1.062 2.031 1.062.625 0 1.219-.265.594-.282 1.219-.86z"/><text x="41" y="625.33" fill="#D9B8FF" font-family="Helvetica" font-size="17" textLength="203">aws_ec2_security_group</text><rect width="299" height="39.789" x="287" y="599.55" fill="#3D176E" rx="2.5" ry="2.5" style="stroke:#000d19;stroke-width:.5"/><circle cx="302" cy="619.444" r="11" fill="#ADD1B2" style="stroke:#181818;stroke-width:1"/><path d="M304.969 625.085q-.578.297-1.219.438-.64.156-1.344.156-2.5 0-3.828-1.64-1.312-1.657-1.312-4.782t1.312-4.781q1.328-1.657 3.828-1.657.703 0 1.344.157.656.156 1.219.453v2.719q-.625-.579-1.219-.844-.594-.281-1.219-.281-1.344 0-2.031 1.078-.687 1.062-.687 3.156t.687 3.172q.688 1.062 2.031 1.062.625 0 1.219-.265.594-.282 1.219-.86z"/><text x="321" y="625.33" fill="#D9B8FF" font-family="Helvetica" font-size="17" textLength="257">azure_network_security_group</text><rect width="227" height="310.758" x="169" y="7" fill="#3D176E" rx="2.5" ry="2.5" style="stroke:#000d19;stroke-width:.5"/><circle cx="237.75" cy="26.895" r="11" fill="#ADD1B2" style="stroke:#181818;stroke-width:1"/><path d="M240.719 32.535q-.578.297-1.219.438-.64.156-1.344.156-2.5 0-3.828-1.64-1.312-1.657-1.312-4.782t1.312-4.781q1.328-1.656 3.828-1.656.703 0 1.344.156.656.156 1.219.453v2.719q-.625-.578-1.219-.844-.594-.281-1.219-.281-1.344 0-2.031 1.078-.687 1.062-.687 3.156t.687 3.172q.688 1.062 2.031 1.062.625 0 1.219-.265.594-.281 1.219-.86z"/><text x="263.25" y="32.78" fill="#D9B8FF" font-family="Helvetica" font-size="17" textLength="71">resource</text><path d="M170 46.789h225" style="stroke:#000d19;stroke-width:.5"/><text x="180" y="68.784" fill="#D9B8FF" font-family="sans-serif" font-size="14" font-weight="bold" textLength="29">age</text><text x="209" y="68.784" fill="#D9B8FF" font-family="sans-serif" font-size="14" textLength="66">: duration</text><text x="180" y="95.081" fill="#D9B8FF" font-family="sans-serif" font-size="14" font-weight="bold" textLength="43">atime</text><text x="223" y="95.081" fill="#D9B8FF" font-family="sans-serif" font-size="14" textLength="70">: datetime</text><text x="180" y="121.378" fill="#D9B8FF" font-family="sans-serif" font-size="14" font-weight="bold" textLength="43">ctime</text><text x="223" y="121.378" fill="#D9B8FF" font-family="sans-serif" font-size="14" textLength="70">: datetime</text><text x="180" y="147.675" fill="#D9B8FF" font-family="sans-serif" font-size="14" font-weight="bold" textLength="14">id</text><text x="194" y="147.675" fill="#D9B8FF" font-family="sans-serif" font-size="14" textLength="48">: string</text><text x="180" y="173.972" fill="#D9B8FF" font-family="sans-serif" font-size="14" font-weight="bold" textLength="33">kind</text><text x="213" y="173.972" fill="#D9B8FF" font-family="sans-serif" font-size="14" textLength="48">: string</text><text x="180" y="200.269" fill="#D9B8FF" font-family="sans-serif" font-size="14" font-weight="bold" textLength="90">last_access</text><text x="270" y="200.269" fill="#D9B8FF" font-family="sans-serif" font-size="14" textLength="66">: duration</text><text x="180" y="226.565" fill="#D9B8FF" font-family="sans-serif" font-size="14" font-weight="bold" textLength="90">last_update</text><text x="270" y="226.565" fill="#D9B8FF" font-family="sans-serif" font-size="14" textLength="66">: duration</text><text x="180" y="252.862" fill="#D9B8FF" font-family="sans-serif" font-size="14" font-weight="bold" textLength="48">mtime</text><text x="228" y="252.862" fill="#D9B8FF" font-family="sans-serif" font-size="14" textLength="70">: datetime</text><text x="180" y="279.159" fill="#D9B8FF" font-family="sans-serif" font-size="14" font-weight="bold" textLength="43">name</text><text x="223" y="279.159" fill="#D9B8FF" font-family="sans-serif" font-size="14" textLength="48">: string</text><text x="180" y="305.456" fill="#D9B8FF" font-family="sans-serif" font-size="14" font-weight="bold" textLength="34">tags</text><text x="214" y="305.456" fill="#D9B8FF" font-family="sans-serif" font-size="14" textLength="171">: dictionary[string, string]</text><rect width="165" height="39.789" x="200" y="438.76" fill="#3D176E" rx="2.5" ry="2.5" style="stroke:#000d19;stroke-width:.5"/><circle cx="215" cy="458.654" r="11" fill="#ADD1B2" style="stroke:#181818;stroke-width:1"/><path d="M217.969 464.295q-.578.297-1.219.438-.64.156-1.344.156-2.5 0-3.828-1.64-1.312-1.657-1.312-4.782t1.312-4.781q1.328-1.656 3.828-1.656.703 0 1.344.156.656.156 1.219.453v2.719q-.625-.579-1.219-.844-.594-.281-1.219-.281-1.344 0-2.031 1.078-.687 1.062-.687 3.156t.687 3.172q.688 1.062 2.031 1.062.625 0 1.219-.265.594-.281 1.219-.86z"/><text x="234" y="464.54" fill="#D9B8FF" font-family="Helvetica" font-size="17" textLength="123">security_group</text><path fill="none" d="M251.552 491.774c-29.4 30.52-74.082 76.886-103.532 107.446m116.02-120.41-16.809 8.801 8.642 8.325z" style="stroke:#ffaf37;stroke-width:2"/><g fill="none"><path d="M313.612 491.731c29.6 30.52 74.608 76.929 104.248 107.489" style="stroke:#ffaf37;stroke-width:2"/><path d="m301.08 478.81 8.225 17.098 8.614-8.354z" style="stroke:#ffaf37;stroke-width:2"/></g><path fill="none" d="M282.5 335.85v102.83m0-120.83-6 18h12z" style="stroke:#ffaf37;stroke-width:2"/></svg>
